device/images/new.svg

<svg width="60" height="60" viewBox="0 0 60 60" fill="none" xmlns="http://www.w3.org/2000/svg">
<circle cx="30" cy="30" r="29" stroke="black" stroke-opacity="0.6" stroke-width="2"/>
<path d="M13.5632 28.316V34H11.2672V24.06H13.0872L17.6932 29.912V24.06H19.9892V34H18.1132L13.5632 28.316ZM31.6763 31.984V34H24.6903V24.06H31.5503V26.076H26.9863V28.008H30.9063V29.87H26.9863V31.984H31.6763ZM39.1471 24.074H41.2611L42.2971 27.252L43.3331 24.074H45.4611L43.7671 28.694L44.7751 31.34L47.2671 24.06H49.7731L45.8951 34H43.9071L42.2971 30.108L40.7011 34H38.6991L34.8351 24.06H37.3271L39.8331 31.34L40.8131 28.694L39.1471 24.074Z" fill="black" fill-opacity="0.6"/>
</svg>

<svg width="60" height="60" fill="none" xmlns="http://www.w3.org/2000/svg"><circle cx="30" cy="30" r="29" stroke="#000" stroke-opacity=".6" stroke-width="2"/><path d="M13.56 28.32V34h-2.3v-9.94h1.83l4.6 5.85v-5.85H20V34H18.1l-4.55-5.68Zm18.12 3.66V34h-6.99v-9.94h6.86v2.02h-4.56V28h3.92v1.86h-3.92v2.11h4.69Zm7.47-7.9h2.11l1.04 3.17 1.03-3.18h2.13l-1.7 4.62 1.02 2.65 2.49-7.28h2.5L45.9 34h-2l-1.6-3.9-1.6 3.9h-2l-3.86-9.94h2.49l2.5 7.28.98-2.65-1.66-4.62Z" fill="#000" fill-opacity=".6"/></svg>
